themes/camp/images/touch.svg

<?xml version="1.0" encoding="UTF-8" standalone="no"?>
<svg width="22px" height="32px" viewBox="0 0 22 32" version="1.1" xmlns="http://www.w3.org/2000/svg" xmlns:xlink="http://www.w3.org/1999/xlink">
    <!-- Generator: Sketch 43.2 (39069) - http://www.bohemiancoding.com/sketch -->
    <title>touch</title>
    <desc>Created with Sketch.</desc>
    <defs></defs>
    <g id="Page-1" stroke="none" stroke-width="1" fill="none" fill-rule="evenodd">
        <g id="homepage" transform="translate(-781.000000, -75.000000)" fill="#03B58B">
            <g id="nav-bar">
                <g id="touch" transform="translate(781.000000, 75.000000)">
                    <g id="Fill-1">
                        <path d="M17.1875,14.6285714 L17.1875,13.7120141 C17.1875,10.3854158 14.4118333,7.67909134 11,7.67909134 C7.58816667,7.67909134 4.8125,10.3854158 4.8125,13.7120141 L4.8125,14.6285714 C4.09108333,13.5216418 3.66666667,12.2131679 3.66666667,10.8072735 C3.66666667,6.86487021 6.95658333,3.65714286 11,3.65714286 C15.0434167,3.65714286 18.3333333,6.86487021 18.3333333,10.8072735 C18.3333333,12.2131679 17.9089167,13.5216418 17.1875,14.6285714 M22,11.0503597 C22,4.95746763 17.065125,0 11,0 C4.934875,0 0,4.95746763 0,11.0503597 C0,14.8401727 1.909875,18.1898129 4.8125,20.1811799 L4.8125,30.1582734 C4.8125,31.1753669 5.633375,32 6.64583333,32 L15.3541667,32 C16.366625,32 17.1875,31.1753669 17.1875,30.1582734 L17.1875,20.1811799 C20.090125,18.1898129 22,14.8401727 22,11.0503597"></path>
                    </g>
                </g>
            </g>
        </g>
    </g>
</svg>

<svg width="22" height="32" viewBox="0 0 22 32" xmlns="http://www.w3.org/2000/svg"><title>touch</title><path d="M17.188 14.629v-.917c0-3.327-2.776-6.033-6.188-6.033s-6.188 2.706-6.188 6.033v.917a6.973 6.973 0 0 1-1.145-3.822c0-3.942 3.29-7.15 7.333-7.15s7.333 3.208 7.333 7.15a6.973 6.973 0 0 1-1.145 3.822M22 11.05C22 4.957 17.065 0 11 0S0 4.957 0 11.05c0 3.79 1.91 7.14 4.813 9.131v9.977c0 1.017.82 1.842 1.833 1.842h8.708a1.838 1.838 0 0 0 1.834-1.842v-9.977A11.06 11.06 0 0 0 22 11.051" fill="#03B58B" fill-rule="evenodd"/></svg>
